Yaru++/mimetypes/48/text-css.svg

<svg height="48" viewBox="0 0 12.699375 12.699376" width="48" xmlns="http://www.w3.org/2000/svg" xmlns:xlink="http://www.w3.org/1999/xlink"><linearGradient id="a" gradientUnits="userSpaceOnUse" x1="6.350071" x2="6.350071" y1=".396856" y2="12.03795"><stop offset="0" stop-color="#fff"/><stop offset=".125" stop-color="#fff" stop-opacity=".098039"/><stop offset=".92500001" stop-color="#fff" stop-opacity=".098039"/><stop offset="1" stop-color="#fff" stop-opacity=".498039"/></linearGradient><linearGradient id="b" gradientTransform="matrix(0 -.02997086 .02997 0 -3.039509 13.625372)" gradientUnits="userSpaceOnUse" x1="459.03448" x2="35.310345" y1="419.23337" y2="207.36522"><stop offset="0" stop-color="#f2f2f2"/><stop offset="1" stop-color="#f9f9f9"/></linearGradient><path d="m4.1621983.39685664c-.5881134-.0089584-1.0513178.0135407-1.4323996.0775109-.3810844.0639689-.6929229.1839555-.9213476.4118407-.2284221.22788556-.3489842.53958356-.4123567.92082886-.0633725.3812456-.0757438.8453924-.07286 1.4349839v3.239953 3.2415033c-.00286.5886857.00955 1.0525967.07286 1.4334327.063373.381246.1839346.692944.4123567.920829.2284247.227885.5402632.347873.9213476.411841.3810845.06397.8442175.07751 1.4323996.07751h4.3757445c.5881822 0 1.0510744-.01352 1.4313678-.07751.3802934-.064.6911794-.18439.9187594-.412357.227584-.227967.347434-.539443.411325-.920313.06389-.380867.07751-.844073.07751-1.4334327v-3.2415033-3.1748438l-2.8389622-2.84361426z" opacity=".1"/><path d="m4.1623597.39685664c-2.3346162 0-2.5858177.2397933-2.5743751 2.57913206v3.241415 3.2414146c-.011456 2.3393387.2397589 2.5791327 2.5743751 2.5791327h4.3757789c2.3346154 0 2.5743744-.239767 2.5743744-2.5791327v-3.2414146l-.000177-3.1748438-2.6457028-2.64570326z" fill="none" opacity=".2" stroke="#000" stroke-width=".529141"/><path d="m4.1623597.39685664c-2.3346162 0-2.5858177.2397933-2.5743751 2.57913206v3.241415 3.2414146c-.011456 2.3393387.2397589 2.5791327 2.5743751 2.5791327h4.3757789c2.3346154 0 2.5743744-.239767 2.5743744-2.5791327v-3.2414146l-.000177-3.1748438-2.6457028-2.64570326z" fill="url(#b)"/><path d="m7.4083519 4.3695427v.439228c.179958.010329.3143148.049728.3968554.1219506.1002166.080173.1503712.2361808.1503712.4686821v.9259961c0 .2645703.034167.469058.1023147.613369.072156.1443117.1724654.2567411.3007423.3369139-.1282769.080173-.2285861.1926029-.3007423.3369139-.0681481.1443109-.1023147.3487986-.1023147.613369v.925996c0 .232501-.050155.388509-.1503712.468682-.082541.07222-.2168974.111622-.3968554.121951v.4397437c.1852653-.0044.3466056-.02333.4748825-.06253.1483208-.04409.2668113-.110238.3550005-.1984277.088189-.08819.1504638-.196236.1865432-.324512.036077-.128276.05374-.274874.05374-.439228v-1.082046c0-.072156.00992-.1426819.02997-.2108297.02405-.072156.058221-.1339133.1023147-.1860257.0481042-.056121.1065107-.1002164.1746588-.1322852.0589356-.0312032.1303934-.0463956.2103122-.0506406v-.4397447c-.0799214-.0037384-.1513739-.0172209-.2103122-.0449563-.0681481-.0360777-.1265546-.0801728-.1746588-.1322852-.0440933-.0561209-.0782625-.1183958-.1023146-.1865427-.0200545-.0721555-.0299705-.1443573-.0299705-.2165138v-1.0820511c0-.1643542-.017673-.3109516-.05374-.4392283-.036079-.1282761-.0983536-.2341301-.1865428-.3183109-.0881892-.0881902-.2066797-.1543328-.3550005-.1984277-.1282743-.0427585-.2896225-.0634252-.4748825-.0682097zm-2.1165626.00103c-.1784474.00577-.336724.025721-.4645485.067178-.1443099.044095-.2606097.1102375-.3487989.1984278-.088189.084181-.1504664.1900347-.1865432.3183109-.036077.1282766-.05374.274874-.05374.4392282v1.0820511c0 .072156-.012117.1443583-.036172.2165138-.020054.068147-.05421.1304218-.1023147.1865427-.044096.052112-.1003092.096208-.1684572.1322852-.06315.029719-.1396032.044334-.2268479.046506v.4366446c.087234.00246.1637055.018761.2268479.052191.068148.032069.1243613.076164.1684572.1322852.048104.052112.082271.113871.1023147.1860257.024049.068147.036172.1386743.036172.2108298v1.0820506c0 .164355.017673.310951.05374.439229.036077.128276.098354.236322.1865432.324512.088189.08819.204489.1543317.3487989.1984267.1278272.038.2860984.05624.4645485.06149v-.4392257c-.1722697-.011844-.3031421-.051396-.3865214-.121433-.0962083-.080173-.1441697-.236181-.1441697-.468683v-.9259956c0-.2645703-.035844-.4690581-.1079976-.613369-.068148-.1443102-.1667824-.2567393-.2950594-.3369123.128277-.0801728.2269114-.1926022.2950594-.3369139.0721537-.144311.1079976-.3487987.1079976-.613369v-.9259961c0-.2325013.047961-.3885094.1441697-.4686821.083379-.070038.2142517-.1095898.3865214-.1214339z" fill="#5884f4"/><path d="m1.5878047 6.2174037v3.2415036c-.011456 2.3393377.2397775 2.5790437 2.5743936 2.5790437h4.3757445c2.3346162 0 2.5743932-.23968 2.5743932-2.5790437v-3.2415036z" fill="#fff" opacity=".2"/><path d="m6.3500706.39685664v11.64109436h2.1878722c2.3346162 0 2.5743932-.23968 2.5743932-2.5790437v-3.2415036-3.1748438l-2.6457028-2.64570326z" fill="#fff" opacity=".1"/><path d="m4.1621983.39685664c-2.3346161 0-2.5858362.2397052-2.5743936 2.57904396v3.2415031 3.2415036c-.011456 2.3393377.2397775 2.5790437 2.5743936 2.5790437h4.3757445c2.3346162 0 2.5743932-.23968 2.5743932-2.5790437v-3.2415036-3.1748438h-.26457v3.1748438 3.2415036c0 .5803217-.01625 1.0240707-.07028 1.3461027-.05402.322035-.139871.509124-.264055.633525-.124183.124387-.3107.2105-.6319705.26457-.321273.05406-.7643966.07028-1.3435225.07028h-4.3757397c-.5791259 0-1.0227997-.01619-1.3450729-.07028-.3222704-.0541-.5102953-.14009-.6350719-.26457-.124774-.124489-.2105874-.311352-.2640518-.633006-.053467-.321654-.0684681-.765511-.0656267-1.3455887v-.000529-3.2420076-3.2420198-.0005292c-.00283-.5800778.01217-1.0239334.065627-1.3455882.053467-.3216548.1392778-.5085249.2640518-.63300516.124774-.1244803.31332-.2104736.6355905-.2645703.3222705-.0540718.7654284-.0702641 1.3445543-.0702641h4.3044349v-.2645703z" fill="url(#a)" opacity=".4"/><path d="m11.112336 3.3071302v-.2645703l-2.6457028-2.64570326h-.2645704v1.11359076.042668.022917c0 1.505929.201592 1.7381397 1.7109763 1.730759z" opacity=".2"/><path d="m11.112336 3.0422212-2.6457028-2.64536506v.98127596.042668.022917c0 1.505929.069402 1.6058848 1.5787868 1.598504z" fill="#faf8f6"/></svg>

<?xml version="1.0" encoding="UTF-8" standalone="no"?>
<svg
   xmlns:dc="http://purl.org/dc/elements/1.1/"
   xmlns:cc="http://creativecommons.org/ns#"
   xmlns:rdf="http://www.w3.org/1999/02/22-rdf-syntax-ns#"
   xmlns:svg="http://www.w3.org/2000/svg"
   xmlns="http://www.w3.org/2000/svg"
   xmlns:xlink="http://www.w3.org/1999/xlink"
   xmlns:sodipodi="http://sodipodi.sourceforge.net/DTD/sodipodi-0.dtd"
   xmlns:inkscape="http://www.inkscape.org/namespaces/inkscape"
   height="48"
   viewBox="0 0 12.699375 12.699376"
   width="48"
   version="1.1"
   id="svg33"
   sodipodi:docname="text-css.svg"
   inkscape:version="0.92.5 (2060ec1f9f, 2020-04-08)">
  <metadata
     id="metadata39">
    <rdf:RDF>
      <cc:Work
         rdf:about="">
        <dc:format>image/svg+xml</dc:format>
        <dc:type
           rdf:resource="http://purl.org/dc/dcmitype/StillImage" />
      </cc:Work>
    </rdf:RDF>
  </metadata>
  <defs
     id="defs37">
    <linearGradient
       gradientTransform="matrix(0.26457032,0,0,0.26457032,-84.662119,-16.006504)"
       inkscape:collect="always"
       xlink:href="#linearGradient927"
       id="linearGradient1004"
       x1="344"
       y1="62"
       x2="344"
       y2="106"
       gradientUnits="userSpaceOnUse" />
    <linearGradient
       inkscape:collect="always"
       id="linearGradient927">
      <stop
         style="stop-color:#ffffff;stop-opacity:1;"
         offset="0"
         id="stop923" />
      <stop
         id="stop933"
         offset="0.125"
         style="stop-color:#ffffff;stop-opacity:0.09803922" />
      <stop
         id="stop931"
         offset="0.92500001"
         style="stop-color:#ffffff;stop-opacity:0.09803922" />
      <stop
         style="stop-color:#ffffff;stop-opacity:0.49803922"
         offset="1"
         id="stop925" />
    </linearGradient>
    <linearGradient
       inkscape:collect="always"
       xlink:href="#linearGradient4338"
       id="linearGradient1024"
       gradientUnits="userSpaceOnUse"
       gradientTransform="matrix(0,-0.02997086,0.02997,0,-3.039509,13.625372)"
       x1="459.03448"
       y1="419.23337"
       x2="35.310345"
       y2="207.36522" />
    <linearGradient
       inkscape:collect="always"
       id="linearGradient4338">
      <stop
         style="stop-color:#f2f2f2;stop-opacity:1"
         offset="0"
         id="stop4340" />
      <stop
         style="stop-color:#f9f9f9;stop-opacity:1"
         offset="1"
         id="stop4342" />
    </linearGradient>
  </defs>
  <sodipodi:namedview
     pagecolor="#ffffff"
     bordercolor="#666666"
     borderopacity="1"
     objecttolerance="10"
     gridtolerance="10"
     guidetolerance="10"
     inkscape:pageopacity="0"
     inkscape:pageshadow="2"
     inkscape:window-width="834"
     inkscape:window-height="480"
     id="namedview35"
     showgrid="false"
     inkscape:zoom="4.9166667"
     inkscape:cx="24"
     inkscape:cy="24"
     inkscape:window-x="0"
     inkscape:window-y="28"
     inkscape:window-maximized="0"
     inkscape:current-layer="svg33" />
  <linearGradient
     id="a"
     gradientUnits="userSpaceOnUse"
     x1="344"
     x2="344"
     y1="62"
     y2="106">
    <stop
       offset="0"
       stop-color="#fff"
       id="stop2" />
    <stop
       offset=".125"
       stop-color="#fff"
       stop-opacity=".098039"
       id="stop4" />
    <stop
       offset=".92500001"
       stop-color="#fff"
       stop-opacity=".098039"
       id="stop6" />
    <stop
       offset="1"
       stop-color="#fff"
       stop-opacity=".498039"
       id="stop8" />
  </linearGradient>
  <clipPath
     id="b">
    <path
       d="m335.73108 62c-8.82418 0-9.77365.90635-9.7304 9.74838v12.25162 12.25162c-.0433 8.84203.90622 9.74838 9.7304 9.74838h16.53919c8.82418 0 9.7304-.90625 9.7304-9.74838v-12.25162-12.25162c0-8.84213-.90622-9.74838-9.7304-9.74838z"
       id="path11" />
  </clipPath>
  <linearGradient
     id="c"
     gradientTransform="matrix(0 -.02997086 .02997 0 -3.039509 13.625372)"
     gradientUnits="userSpaceOnUse"
     x1="459.03448"
     x2="35.310345"
     y1="419.23337"
     y2="207.36522">
    <stop
       offset="0"
       stop-color="#f2f2f2"
       id="stop14" />
    <stop
       offset="1"
       stop-color="#f9f9f9"
       id="stop16" />
  </linearGradient>
  <path
     style="color:#000000;font-style:normal;font-variant:normal;font-weight:normal;font-stretch:normal;font-size:medium;line-height:normal;font-family:sans-serif;font-variant-ligatures:normal;font-variant-position:normal;font-variant-caps:normal;font-variant-numeric:normal;font-variant-alternates:normal;font-feature-settings:normal;text-indent:0;text-align:start;text-decoration:none;text-decoration-line:none;text-decoration-style:solid;text-decoration-color:#000000;letter-spacing:normal;word-spacing:normal;text-transform:none;writing-mode:lr-tb;direction:ltr;text-orientation:mixed;dominant-baseline:auto;baseline-shift:baseline;text-anchor:start;white-space:normal;shape-padding:0;clip-rule:nonzero;display:inline;overflow:visible;visibility:visible;opacity:0.1;isolation:auto;mix-blend-mode:normal;color-interpolation:sRGB;color-interpolation-filters:linearRGB;solid-color:#000000;solid-opacity:1;vector-effect:none;fill:#000000;fill-opacity:1;fill-rule:nonzero;stroke:none;stroke-width:0.52914065;stroke-linecap:butt;stroke-linejoin:miter;stroke-miterlimit:4;stroke-dasharray:none;stroke-dashoffset:0;stroke-opacity:1;marker:none;color-rendering:auto;image-rendering:auto;shape-rendering:auto;text-rendering:auto;enable-background:accumulate"
     d="M 4.1621983,0.39685664 C 3.5740849,0.38789824 3.1108805,0.41039734 2.7297987,0.47436754 2.3487143,0.53833644 2.0368758,0.65832304 1.8084511,0.88620824 1.580029,1.1140938 1.4594669,1.4257918 1.3960944,1.8070371 1.3327219,2.1882827 1.3203506,2.6524295 1.3232344,3.242021 v 3.239953 3.2415033 c -0.00286,0.5886857 0.00955,1.0525967 0.07286,1.4334327 0.063373,0.381246 0.1839346,0.692944 0.4123567,0.920829 0.2284247,0.227885 0.5402632,0.347873 0.9213476,0.411841 0.3810845,0.06397 0.8442175,0.07751 1.4323996,0.07751 h 4.3757445 c 0.5881822,0 1.0510744,-0.01352 1.4313678,-0.07751 0.3802934,-0.064 0.6911794,-0.18439 0.9187594,-0.412357 0.227584,-0.227967 0.347434,-0.539443 0.411325,-0.920313 0.06389,-0.380867 0.07751,-0.844073 0.07751,-1.4334327 V 6.481974 3.3071302 L 8.5379428,0.46351594 Z"
     id="path1020"
     inkscape:connector-curvature="0"
     sodipodi:nodetypes="sccsccccccsscccscccs" />
  <path
     style="color:#000000;display:inline;overflow:visible;visibility:visible;opacity:0.2;fill:none;fill-opacity:1;fill-rule:nonzero;stroke:#000000;stroke-width:0.52914065;stroke-miterlimit:4;stroke-dasharray:none;stroke-opacity:1;marker:none;enable-background:accumulate"
     d="m 4.1623597,0.39685664 c -2.3346162,0 -2.5858177,0.2397933 -2.5743751,2.57913206 v 3.241415 3.2414146 c -0.011456,2.3393387 0.2397589,2.5791327 2.5743751,2.5791327 h 4.3757789 c 2.3346154,0 2.5743744,-0.239767 2.5743744,-2.5791327 V 6.2174037 L 11.112336,3.0425599 8.4666332,0.39685664 Z"
     id="path958"
     inkscape:connector-curvature="0"
     sodipodi:nodetypes="scccssscccs" />
  <path
     style="color:#000000;display:inline;overflow:visible;visibility:visible;fill:url(#linearGradient1024);fill-opacity:1;fill-rule:nonzero;stroke:none;stroke-width:0.26457033;marker:none;enable-background:accumulate"
     d="m 4.1623597,0.39685664 c -2.3346162,0 -2.5858177,0.2397933 -2.5743751,2.57913206 v 3.241415 3.2414146 c -0.011456,2.3393387 0.2397589,2.5791327 2.5743751,2.5791327 h 4.3757789 c 2.3346154,0 2.5743744,-0.239767 2.5743744,-2.5791327 V 6.2174037 L 11.112336,3.0425599 8.4666332,0.39685664 Z"
     id="path964"
     inkscape:connector-curvature="0"
     sodipodi:nodetypes="scccssscccs" />
  <path
     style="font-style:normal;font-variant:normal;font-weight:normal;font-stretch:normal;font-size:medium;line-height:1000%;font-family:Ubuntu;-inkscape-font-specification:Ubuntu;text-align:center;letter-spacing:0px;word-spacing:0px;text-anchor:middle;display:inline;fill:#5884f4;fill-opacity:1;stroke:none;stroke-width:0.2645703px;stroke-linecap:butt;stroke-linejoin:miter;stroke-opacity:1;enable-background:new"
     d="m 7.4083519,4.3695427 v 0.439228 c 0.179958,0.010329 0.3143148,0.049728 0.3968554,0.1219506 0.1002166,0.080173 0.1503712,0.2361808 0.1503712,0.4686821 v 0.9259961 c 0,0.2645703 0.034167,0.469058 0.1023147,0.613369 0.072156,0.1443117 0.1724654,0.2567411 0.3007423,0.3369139 C 8.2303586,7.3558554 8.1300494,7.4682853 8.0578932,7.6125963 7.9897451,7.7569072 7.9555785,7.9613949 7.9555785,8.2259653 v 0.925996 c 0,0.232501 -0.050155,0.388509 -0.1503712,0.468682 -0.082541,0.07222 -0.2168974,0.111622 -0.3968554,0.121951 v 0.4397437 c 0.1852653,-0.0044 0.3466056,-0.02333 0.4748825,-0.06253 0.1483208,-0.04409 0.2668113,-0.110238 0.3550005,-0.1984277 0.088189,-0.08819 0.1504638,-0.196236 0.1865432,-0.324512 0.036077,-0.128276 0.05374,-0.274874 0.05374,-0.439228 v -1.082046 c 0,-0.072156 0.00992,-0.1426819 0.02997,-0.2108297 0.02405,-0.072156 0.058221,-0.1339133 0.1023147,-0.1860257 C 8.658907,7.6226179 8.7173135,7.5785225 8.7854616,7.5464537 8.8443972,7.5152505 8.915855,7.5000581 8.9957738,7.4958131 V 7.0560684 C 8.9158524,7.05233 8.8443999,7.0388475 8.7854616,7.0111121 8.7173135,6.9750344 8.658907,6.9309393 8.6108028,6.8788269 8.5667095,6.822706 8.5325403,6.7604311 8.5084882,6.6922842 8.4884337,6.6201287 8.4785177,6.5479269 8.4785177,6.4757704 V 5.3937193 c 0,-0.1643542 -0.017673,-0.3109516 -0.05374,-0.4392283 C 8.3886987,4.8262149 8.3264241,4.7203609 8.2382349,4.6361801 8.1500457,4.5479899 8.0315552,4.4818473 7.8832344,4.4377524 7.7549601,4.3949939 7.5936119,4.3743272 7.4083519,4.3695427 Z m -2.1165626,0.00103 c -0.1784474,0.00577 -0.336724,0.025721 -0.4645485,0.067178 -0.1443099,0.044095 -0.2606097,0.1102375 -0.3487989,0.1984278 -0.088189,0.084181 -0.1504664,0.1900347 -0.1865432,0.3183109 -0.036077,0.1282766 -0.05374,0.274874 -0.05374,0.4392282 v 1.0820511 c 0,0.072156 -0.012117,0.1443583 -0.036172,0.2165138 -0.020054,0.068147 -0.05421,0.1304218 -0.1023147,0.1865427 -0.044096,0.052112 -0.1003092,0.096208 -0.1684572,0.1322852 -0.06315,0.029719 -0.1396032,0.044334 -0.2268479,0.046506 V 7.494261 c 0.087234,0.00246 0.1637055,0.018761 0.2268479,0.052191 0.068148,0.032069 0.1243613,0.076164 0.1684572,0.1322852 0.048104,0.052112 0.082271,0.113871 0.1023147,0.1860257 0.024049,0.068147 0.036172,0.1386743 0.036172,0.2108298 v 1.0820506 c 0,0.164355 0.017673,0.310951 0.05374,0.439229 0.036077,0.128276 0.098354,0.236322 0.1865432,0.324512 0.088189,0.08819 0.204489,0.1543317 0.3487989,0.1984267 0.1278272,0.038 0.2860984,0.05624 0.4645485,0.06149 V 9.7420753 C 5.1195196,9.7302313 4.9886472,9.6906793 4.9052679,9.6206423 4.8090596,9.5404693 4.7610982,9.3844613 4.7610982,9.1519593 V 8.2259637 c 0,-0.2645703 -0.035844,-0.4690581 -0.1079976,-0.613369 C 4.5849526,7.4682845 4.4863182,7.3558554 4.3580412,7.2756824 4.4863182,7.1955096 4.5849526,7.0830802 4.6531006,6.9387685 4.7252543,6.7944575 4.7610982,6.5899698 4.7610982,6.3253995 V 5.3994034 c 0,-0.2325013 0.047961,-0.3885094 0.1441697,-0.4686821 0.083379,-0.070038 0.2142517,-0.1095898 0.3865214,-0.1214339 z"
     id="path941"
     inkscape:connector-curvature="0"
     sodipodi:nodetypes="cccsscccssccccscssccccccccssccccccccssccccccccsscsccccsscccssccc" />
  <path
     style="color:#000000;display:inline;overflow:visible;visibility:visible;opacity:0.2;fill:#ffffff;fill-opacity:1;fill-rule:nonzero;stroke:none;stroke-width:0.26457033;marker:none;enable-background:accumulate"
     d="m 1.5878047,6.2174037 v 3.2415036 c -0.011456,2.3393377 0.2397775,2.5790437 2.5743936,2.5790437 h 4.3757445 c 2.3346162,0 2.5743932,-0.23968 2.5743932,-2.5790437 V 6.2174037 Z"
     id="path1006"
     inkscape:connector-curvature="0" />
  <path
     style="color:#000000;display:inline;overflow:visible;visibility:visible;opacity:0.1;fill:#ffffff;fill-opacity:1;fill-rule:nonzero;stroke:none;stroke-width:0.26457033;marker:none;enable-background:accumulate"
     d="M 6.3500706,0.39685664 V 12.037951 h 2.1878722 c 2.3346162,0 2.5743932,-0.23968 2.5743932,-2.5790437 V 6.2174037 3.0425599 L 8.4666332,0.39685664 Z"
     id="path1013"
     inkscape:connector-curvature="0"
     sodipodi:nodetypes="ccsscccc" />
  <path
     style="color:#000000;font-style:normal;font-variant:normal;font-weight:normal;font-stretch:normal;font-size:medium;line-height:normal;font-family:sans-serif;font-variant-ligatures:normal;font-variant-position:normal;font-variant-caps:normal;font-variant-numeric:normal;font-variant-alternates:normal;font-feature-settings:normal;text-indent:0;text-align:start;text-decoration:none;text-decoration-line:none;text-decoration-style:solid;text-decoration-color:#000000;letter-spacing:normal;word-spacing:normal;text-transform:none;writing-mode:lr-tb;direction:ltr;text-orientation:mixed;dominant-baseline:auto;baseline-shift:baseline;text-anchor:start;white-space:normal;shape-padding:0;clip-rule:nonzero;display:inline;overflow:visible;visibility:visible;opacity:0.4;isolation:auto;mix-blend-mode:normal;color-interpolation:sRGB;color-interpolation-filters:linearRGB;solid-color:#000000;solid-opacity:1;vector-effect:none;fill:url(#linearGradient1004);fill-opacity:1;fill-rule:nonzero;stroke:none;stroke-width:0.52914065;stroke-linecap:butt;stroke-linejoin:miter;stroke-miterlimit:4;stroke-dasharray:none;stroke-dashoffset:0;stroke-opacity:1;marker:none;color-rendering:auto;image-rendering:auto;shape-rendering:auto;text-rendering:auto;enable-background:accumulate"
     clip-path="none"
     d="m 4.1621983,0.39685664 c -2.3346161,0 -2.5858362,0.2397052 -2.5743936,2.57904396 v 3.2415031 3.2415036 c -0.011456,2.3393377 0.2397775,2.5790437 2.5743936,2.5790437 h 4.3757445 c 2.3346162,0 2.5743932,-0.23968 2.5743932,-2.5790437 V 6.2174037 3.0425599 h -0.26457 v 3.1748438 3.2415036 c 0,0.5803217 -0.01625,1.0240707 -0.07028,1.3461027 -0.05402,0.322035 -0.139871,0.509124 -0.264055,0.633525 -0.124183,0.124387 -0.3107,0.2105 -0.6319705,0.26457 -0.321273,0.05406 -0.7643966,0.07028 -1.3435225,0.07028 H 4.1621983 c -0.5791259,0 -1.0227997,-0.01619 -1.3450729,-0.07028 C 2.494855,11.649005 2.3068301,11.563015 2.1820535,11.438535 2.0572795,11.314046 1.9714661,11.127183 1.9180017,10.805529 1.8645347,10.483875 1.8495336,10.040018 1.852375,9.4599403 V 9.4594113 6.2174037 2.9753839 2.9748547 c -0.00283,-0.5800778 0.01217,-1.0239334 0.065627,-1.3455882 0.053467,-0.3216548 0.1392778,-0.5085249 0.2640518,-0.63300516 0.124774,-0.1244803 0.31332,-0.2104736 0.6355905,-0.2645703 0.3222705,-0.0540718 0.7654284,-0.0702641 1.3445543,-0.0702641 h 4.3044349 v -0.2645703 z"
     id="path990"
     inkscape:connector-curvature="0" />
  <path
     inkscape:connector-curvature="0"
     style="color:#000000;display:inline;overflow:visible;visibility:visible;opacity:0.2;fill:#000000;fill-opacity:1;fill-rule:nonzero;stroke:none;stroke-width:0.06614864;marker:none;enable-background:accumulate"
     d="M 11.112336,3.3071302 V 3.0425599 L 8.4666332,0.39685664 H 8.2020628 v 1.11359076 0.042668 0.022917 c 0,1.505929 0.201592,1.7381397 1.7109763,1.730759 z"
     id="rect4158-0-3-62-2"
     sodipodi:nodetypes="ccccccscc" />
  <path
     inkscape:connector-curvature="0"
     style="color:#000000;display:inline;overflow:visible;visibility:visible;fill:#faf8f6;fill-opacity:1;fill-rule:nonzero;stroke:none;stroke-width:0.06614864;marker:none;enable-background:accumulate"
     d="M 11.112336,3.0422212 8.4666332,0.39685614 v 0.98127596 0.042668 0.022917 c 0,1.505929 0.069402,1.6058848 1.5787868,1.598504 z"
     id="rect4158-0-3-62"
     sodipodi:nodetypes="ccccscc" />
</svg>
